!!!OTL: Nascente Christo Domino
**kern
*staff1
=--
*clefG2
*k[b-]
*M3/1
2r
2r
2g
1g
2g
=-
1dd
2dd
1ee
2dd
=-
1.cc
=-
2r
2r
2dd
2.dd
4ee
2ff
=-
1ee
2dd
1cc
2b-
=-
1.a
=-
!!linebreak:original
1b-
2a
1b-
2cc
=-
1.dd
=-
1g
2g
1b-
2a
=-
1b-
2cc
=-
1.dd
=-
1g
2cc
=-
2b-
1a
=-
1g
2f
=-
0g
=-=
*-
!!title: @{OTL}, @{GTL}, ed. @{ENC}
!!!pag:
!!!GTL: Hymnbook C
!!!EFL: 
!!!YEM: Creative Commons CC/BY/NC/SA 4.0
!!!ENC: Marcin Konik
!!!END: 2015-0m-dd
!!!EED: Marcin Konik
!!!EEV: 
!!!ONB: Encoded in vim by Marcin Konik
!!!CharacterEncoding: utf-8
!!!RDF**kern: l=long note in original notation
!!!RDF**kern: i=editorial accidental
!!muse2ps: z14jc180F
!!!COM: Anonim
!!!CDT: [?]
!!!TXO: Polish
!!!ODT: 
!!!GTL: Hymnbook C
!!!ARL: Opactwo św. Wojciecha, Staniątki 
!!!voices:	1
